svgs/sharp-solid/chess-rook.svg

<svg xmlns="http://www.w3.org/2000/svg" viewBox="0 0 448 512"><!--! Font Awesome Pro 6.6.0 by @fontawesome - https://fontawesome.com License - https://fontawesome.com/license (Commercial License) Copyright 2024 Fonticons, Inc. --><path d="M32 208L32 32l96 0 0 64 48 0 0-64 96 0 0 64 48 0 0-64 96 0 0 176-64 48 16 144L80 400 96 256 32 208zm160 16l0 64 64 0 0-64c0-17.7-14.3-32-32-32s-32 14.3-32 32zM16 512l0-32 48-48 320 0 48 48 0 32L16 512z"/></svg>

<svg xmlns="http://www.w3.org/2000/svg" viewBox="0 0 448 512"><!--! Font Awesome Pro 6.4.0 by @fontawesome - https://fontawesome.com License - https://fontawesome.com/license (Commercial License) Copyright 2023 Fonticons, Inc. --><path d="M32 208V32h96V96h48V32h96V96h48V32h96V208l-64 48 16 144H80L96 256 32 208zm160 16v64h64V224c0-17.7-14.3-32-32-32s-32 14.3-32 32zM16 512V480l48-48H384l48 48v32H16z"/></svg>
